sources/design/Outline/A.svg

<svg:svg xmlns:cc="http://creativecommons.org/ns#" xmlns:dc="http://purl.org/dc/elements/1.1/" xmlns:inkscape="http://www.inkscape.org/namespaces/inkscape" xmlns:rdf="http://www.w3.org/1999/02/22-rdf-syntax-ns#" xmlns:sodipodi="http://sodipodi.sourceforge.net/DTD/sodipodi-0.dtd" xmlns:svg="http://www.w3.org/2000/svg" xml:space="preserve" width="1000" height="1000" version="1.1" style="clip-rule:evenodd;fill-rule:evenodd;image-rendering:optimizeQuality;shape-rendering:geometricPrecision;text-rendering:geometricPrecision" viewBox="0 0 1000 1000" id="svg10" sodipodi:docname="A.svg" inkscape:version="1.1.1 (3bf5ae0d25, 2021-09-20)"><svg:text text-anchor="middle" x="265.57419" y="5.7619171" id="top" inkscape:label="top">✛</svg:text><svg:metadata id="metadata14"><rdf:RDF><cc:Work rdf:about=""><dc:format>image/svg+xml</dc:format><dc:type rdf:resource="http://purl.org/dc/dcmitype/StillImage" /><dc:title /></cc:Work></rdf:RDF></svg:metadata><sodipodi:namedview pagecolor="#ffffff" bordercolor="#666666" borderopacity="1" objecttolerance="10" gridtolerance="10" guidetolerance="10" inkscape:pageopacity="0" inkscape:pageshadow="2" inkscape:window-width="1920" inkscape:window-height="1009" id="namedview12" showgrid="false" inkscape:zoom="1.6978177" inkscape:cx="209.38644" inkscape:cy="135.46802" inkscape:window-x="0" inkscape:window-y="60" inkscape:window-maximized="1" inkscape:current-layer="svg10" showguides="true" inkscape:guide-bbox="true" inkscape:document-rotation="0" inkscape:pagecheckerboard="0"><sodipodi:guide position="0,1000" orientation="0,1" id="guide16" inkscape:label="" inkscape:locked="true" inkscape:color="rgb(0,0,255)" /><sodipodi:guide position="1763.3122,2036.1693" orientation="1000,0" id="guide18" /><sodipodi:guide position="0,200" orientation="0,1" id="guide20" inkscape:label="base" inkscape:locked="true" inkscape:color="rgb(0,0,255)" /><inkscape:grid type="xygrid" id="grid24" originx="-473.37552" originy="-489.69235" /><sodipodi:guide position="0,0" orientation="0,1" id="guide34" inkscape:label="bottom" inkscape:locked="true" inkscape:color="rgb(0,0,255)" /><sodipodi:guide position="225.05109,1693.3186" orientation="0,1" id="guide44" inkscape:label="" inkscape:locked="false" inkscape:color="rgb(0,0,255)" /><sodipodi:guide position="0,900" orientation="0,1" id="guide46" inkscape:label="" inkscape:locked="true" inkscape:color="rgb(0,0,255)" /><sodipodi:guide position="606.16676,560.13962" orientation="1,0" id="guide841" inkscape:label="width" />    </sodipodi:namedview>
 <svg:defs id="defs4"><inkscape:path-effect effect="fillet_chamfer" id="path-effect858" is_visible="true" lpeversion="1" satellites_param="F,0,0,1,0,0,0,1 @ F,0,0,1,0,0,0,1 @ F,0,0,1,0,0,0,1 @ F,0,0,1,0,24.176115,0,1 @ F,0,0,1,0,28.854274,0,1 @ F,0,0,1,0,0,0,1 | F,0,0,1,0,13.625407,0,1 @ F,0,0,1,0,12.519463,0,1 @ F,0,0,1,0,0,0,1 @ F,0,0,1,0,11.210265,0,1 @ F,0,0,1,0,8.3441042,0,1 @ F,0,0,1,0,0,0,1 @ F,0,0,1,0,0,0,1 @ F,0,0,1,0,13.205692,0,1 @ F,0,0,1,0,13.075907,0,1 @ F,0,0,1,0,0,0,1 @ F,0,0,1,0,0,0,1 @ F,0,0,1,0,0,0,1 @ F,0,0,1,0,0,0,1 @ F,0,0,1,0,0,0,1 @ F,0,0,1,0,0,0,1" unit="px" method="auto" mode="F" radius="0" chamfer_steps="1" flexible="false" use_knot_distance="true" apply_no_radius="true" apply_with_radius="true" only_selected="true" hide_knots="false" /><inkscape:path-effect effect="fillet_chamfer" id="path-effect856" is_visible="true" lpeversion="1" satellites_param="F,0,0,1,0,0,0,1 @ F,0,0,1,0,0,0,1 @ F,0,0,1,0,0,0,1 @ F,0,0,1,0,0,0,1 @ F,0,0,1,0,0,0,1 @ F,0,0,1,0,0,0,1 | F,0,0,1,0,0,0,1 @ F,0,0,1,0,0,0,1 @ F,0,0,1,0,0,0,1 @ F,0,0,1,0,0,0,1 @ F,0,0,1,0,0,0,1 @ F,0,0,1,0,0,0,1 @ F,0,0,1,0,0,0,1 @ F,0,0,1,0,0,0,1 @ F,0,0,1,0,0,0,1 @ F,0,0,1,0,0,0,1 @ F,0,0,1,0,0,0,1 @ F,0,0,1,0,0,0,1 @ F,0,0,1,0,0,0,1" unit="px" method="auto" mode="F" radius="0" chamfer_steps="1" flexible="false" use_knot_distance="true" apply_no_radius="true" apply_with_radius="true" only_selected="true" hide_knots="false" /><inkscape:path-effect effect="fillet_chamfer" id="path-effect866" is_visible="true" lpeversion="1" satellites_param="F,0,0,1,0,0,0,1 @ F,0,0,1,0,0,0,1 @ F,0,0,1,0,0,0,1 @ F,0,1,1,0,25.335742,0,1 @ F,0,1,1,0,25.335742,0,1 @ F,0,0,1,0,0,0,1 | F,0,1,1,0,25.335742,0,1 @ F,0,1,1,0,25.335742,0,1 @ F,0,0,1,0,0,0,1 @ F,0,1,1,0,25.335742,0,1 @ F,0,1,1,0,25.335742,0,1 @ F,0,0,1,0,0,0,1 @ F,0,1,1,0,25.335742,0,1 @ F,0,1,1,0,25.335742,0,1 @ F,0,0,1,0,0,0,1 @ F,0,0,1,0,0,0,1 @ F,0,0,1,0,0,0,1" unit="px" method="auto" mode="F" radius="0" chamfer_steps="1" flexible="false" use_knot_distance="true" apply_no_radius="true" apply_with_radius="true" only_selected="true" hide_knots="false" /><inkscape:path-effect effect="fillet_chamfer" id="path-effect852" is_visible="true" lpeversion="1" satellites_param="F,0,0,1,0,0,0,1 @ F,0,0,1,0,0,0,1 @ F,0,0,1,0,0,0,1 @ F,0,0,1,0,17.647011,0,1 @ F,0,0,1,0,18.798827,0,1 @ F,0,0,1,0,0,0,1 | F,0,0,1,0,12.489033,0,1 @ F,0,0,1,0,16.218975,0,1 @ F,0,0,1,0,0,0,1 @ F,0,0,1,0,15.16841,0,1 @ F,0,0,1,0,15.078812,0,1 @ F,0,0,1,0,0,0,1 @ F,0,0,1,0,24.036198,0,1 @ F,0,0,1,0,18.162269,0,1 @ F,0,0,1,0,0,0,1 @ F,0,0,1,0,0,0,1 @ F,0,0,1,0,0,0,1" unit="px" method="auto" mode="F" radius="0" chamfer_steps="1" flexible="false" use_knot_distance="true" apply_no_radius="true" apply_with_radius="true" only_selected="true" hide_knots="false" /><inkscape:path-effect effect="spiro" id="path-effect853" is_visible="true" lpeversion="1" /><inkscape:path-effect effect="spiro" id="path-effect928" is_visible="true" lpeversion="1" /><inkscape:path-effect effect="spiro" id="path-effect921" is_visible="true" lpeversion="1" /><inkscape:path-effect effect="spiro" id="path-effect917" is_visible="true" lpeversion="1" /><inkscape:path-effect effect="spiro" id="path-effect849" is_visible="true" lpeversion="1" /><inkscape:path-effect effect="spiro" id="path-effect851" is_visible="true" lpeversion="1" />
  <svg:style type="text/css" id="style2">
   
    .fil0 {fill:#EF7F1A;fill-rule:nonzero}
   
  </svg:style>
 <inkscape:path-effect effect="spiro" id="path-effect1214" is_visible="true" lpeversion="1" /><inkscape:path-effect effect="spiro" id="path-effect1195" is_visible="true" lpeversion="1" /><inkscape:path-effect effect="spiro" id="path-effect992" is_visible="true" lpeversion="1" /><inkscape:path-effect effect="spiro" id="path-effect1060" is_visible="true" lpeversion="1" /><inkscape:path-effect effect="spiro" id="path-effect1047" is_visible="true" lpeversion="1" /><inkscape:path-effect effect="spiro" id="path-effect1085" is_visible="true" lpeversion="1" /><inkscape:path-effect effect="spiro" id="path-effect1286" is_visible="true" lpeversion="1" /><inkscape:path-effect effect="spiro" id="path-effect1030" is_visible="true" lpeversion="1" /><inkscape:path-effect effect="fillet_chamfer" id="path-effect861" is_visible="true" lpeversion="1" satellites_param="F,0,0,1,0,0,0,1 @ F,0,0,1,0,0,0,1 @ F,0,0,1,0,0,0,1 @ F,0,0,1,0,0,0,1 @ F,0,0,1,0,0,0,1 @ F,0,0,1,0,0,0,1 @ F,0,0,1,0,0,0,1 @ F,0,0,1,0,0,0,1 @ F,0,0,1,0,0,0,1 @ F,0,0,1,0,0,0,1 @ F,0,0,1,0,18.745288,0,1 @ F,0,0,1,0,22.258793,0,1 @ F,0,0,1,0,0,0,1 @ F,0,0,1,0,0,0,1 @ F,0,0,1,0,0,0,1 @ F,0,0,1,0,0,0,1 @ F,0,0,1,0,0,0,1 @ F,0,0,1,0,0,0,1 @ F,0,0,1,0,0,0,1 @ F,0,0,1,0,0,0,1 @ F,0,0,1,0,0,0,1 @ F,0,0,1,0,0,0,1 @ F,0,0,1,0,44.937544,0,1 @ F,0,0,1,0,24.008986,0,1 @ F,0,0,1,0,0,0,1 @ F,0,0,1,0,20.706957,0,1 @ F,0,0,1,0,19.829215,0,1" unit="px" method="auto" mode="F" radius="0" chamfer_steps="1" flexible="false" use_knot_distance="true" apply_no_radius="true" apply_with_radius="true" only_selected="true" hide_knots="false" /></svg:defs>
 
<svg:g id="path851"><svg:path style="color:#000000;clip-rule:nonzero;fill:#1a5fb4;fill-rule:nonzero;stroke-linecap:round;stroke-linejoin:round;-inkscape-stroke:none;paint-order:fill stroke markers;shape-rendering:auto" d="M 323.01953,-28.960937 C 320.65639,-28.923607 318.21839,-28.70572 315.71288999999996,-28.304687 L 208.20508,-11.095703 C 187.06102,-7.7113683 174.41538,4.527679 170.28516,25.501953 C 148.88035,134.2007 125.01641,242.41348 98.837891,350.0625 C 66.825746,349.71338 40.223988,374.16393 37.736328,406.0293 L 32.677734,470.80663999999996 C 31.566957000000002,485.03499999999997 36.80878,501.33 48.925781,511.38476999999995 C 51.270328,513.33029 53.810228,514.89285 56.425781,516.2636699999999 C 32.863766,604.36423 7.7457848,692.04952 -19.0,779.23633 C -22.282421,789.93647 -21.120736,803.83967 -13.386719,814.31445 C -5.652701,824.78924 7.3166521,830.0 18.519531,830.0 L 114.30664,830.0 C 138.01259,830.0 157.12191,812.03511 158.77148,788.50195 C 165.44089,693.3550799999999 178.17692,598.6341199999999 196.77539,505.08203 C 229.13225999999997,503.38822 261.62079,504.29794999999996 293.77734,508.01757999999995 C 327.95578,511.97108999999995 361.78202999999996,519.04072 394.73828,528.97461 C 413.47411,615.20865 427.64556,702.43637 437.01953,790.18164 C 439.48909,813.29802 457.92822,830.0 481.28125,830.0 L 595.0703100000001,830.0 C 606.3134000000001,830.0 619.8736700000001,824.74699 627.6933600000001,813.49609 C 635.5130500000001,802.2452 635.7098400000001,787.72719 631.80469,777.19336 C 586.71395,655.56481 544.26735,532.95527 504.50391,409.48242 C 466.62258,291.8539 430.84748,172.24246 384.35156,55.40625 C 376.3854,35.388665 368.11806,15.491265 359.55273,-4.2773437 C 352.46026,-20.646638 339.56154,-29.222245 323.01953,-28.960937 M 327.69921999999997,75.416016 C 327.99046,76.145454 328.31309999999996,76.86203 328.60351999999995,77.591797 C 365.97092999999995,171.48964999999998 396.71928999999994,268.64812 427.78905999999995,366.40234 C 423.50050999999996,366.05365 419.20736999999997,365.76779999999997 414.91796999999997,365.42969 C 409.22412999999995,347.07151999999996 403.11161999999996,328.75320999999997 396.05469,310.60546999999997 C 375.31341,257.26681999999994 348.67803,207.72505999999998 322.44727,159.46874999999997 C 316.99651,149.44108999999997 311.43954,139.47162999999998 305.96484,129.45702999999997 C 312.97108,111.34752999999998 320.22947,93.33887599999997 327.69921999999997,75.41601599999998 L 327.69921999999997,75.416016 M 217.79491999999996,93.560547 C 225.25137999999995,107.03425 232.62235999999996,120.55496 240.03515999999996,134.05273 C 213.36974999999995,205.52814999999998 190.16076999999996,278.28753 170.64257999999995,352.03711 C 167.15791999999996,351.92595 163.67236999999994,351.85028 160.18749999999994,351.74609 C 180.87966,266.02548 200.10127,179.95 217.79492,93.560547 L 217.79491999999996,93.560547 M 278.49218999999994,204.39453 C 301.42668999999995,246.89029 323.29696999999993,289.05622 340.13280999999995,332.35156 C 343.76663999999994,341.69639 347.15029999999996,351.18302 350.40624999999994,360.74414 C 333.63978999999995,359.63095000000004 316.87210999999996,358.52383000000003 300.09569999999997,357.57227 C 277.47832999999997,356.2894 254.84303999999997,355.36585 232.21093999999997,354.37695 C 245.90138999999996,303.86695000000003 261.33919,253.83719000000002 278.49218999999994,204.39453000000003 L 278.49218999999994,204.39453 M 145.54297,411.35742 C 148.93950999999998,411.45052 152.33607,411.54278 155.73242,411.64258 C 152.7637,424.1939 149.85482,436.75859 147.0957,449.35742 C 143.25360999999998,449.83963 139.40517,450.26687 135.57227,450.81836 C 138.93276,437.67431999999997 142.25299,424.51928 145.54297,411.35742 M 216.9082,413.71875 C 243.51219,414.81576 270.11343999999997,415.96872 296.69727,417.47656 C 320.795,418.84339 344.88079,420.42087 368.95703000000003,422.125 C 372.24403,434.25231 375.42538,446.45286 378.47852,458.75586 C 378.79903,460.0474 379.08784,461.34661 379.40625,462.63867 C 353.48754,456.29287999999997 327.19075,451.48157 300.67187,448.41406 C 270.49315,444.92321 240.09134,443.71405 209.74805,444.54102 C 211.74029000000002,435.77999 213.66909,427.00413000000003 215.76562,418.26758 C 216.13044000000002,416.74735 216.54023,415.23822 216.90820000000002,413.71875 L 216.9082,413.71875 M 134.41016,511.73828000000003 C 118.15202,597.0978 106.6823,683.35567 100.07031,770.0 L 46.455078,770.0 C 71.54200399999999,687.1309200000001 95.287707,603.85646 117.52539,520.17773 C 118.03904,518.2448899999999 118.53084,516.30629 119.04297,514.37305 C 124.14977999999999,513.40971 129.27866,512.5645900000001 134.41016,511.73828000000003 M 482.95117000000005,535.7265600000001 C 509.31748,614.19632 536.80432,692.28632 565.32227,770.0 L 495.08594,770.0 C 486.75577,695.89912 475.12541,622.17816 460.26562,549.10742 A 30.003,30.003 0.0 0,0 482.95117,535.7265600000001 L 482.95117000000005,535.7265600000001" id="path14969" /></svg:g>  </svg:svg>

<svg:svg xmlns:cc="http://creativecommons.org/ns#" xmlns:dc="http://purl.org/dc/elements/1.1/" xmlns:inkscape="http://www.inkscape.org/namespaces/inkscape" xmlns:rdf="http://www.w3.org/1999/02/22-rdf-syntax-ns#" xmlns:sodipodi="http://sodipodi.sourceforge.net/DTD/sodipodi-0.dtd" xmlns:svg="http://www.w3.org/2000/svg" xml:space="preserve" width="1000" height="1000" version="1.1" style="clip-rule:evenodd;fill-rule:evenodd;image-rendering:optimizeQuality;shape-rendering:geometricPrecision;text-rendering:geometricPrecision" viewBox="0 0 1000 1000" id="svg10" sodipodi:docname="A.svg" inkscape:version="1.1.1 (3bf5ae0d25, 2021-09-20)"><svg:text text-anchor="middle" x="265.57419" y="5.7619171" id="top" inkscape:label="top">✛</svg:text><svg:metadata id="metadata14"><rdf:RDF><cc:Work rdf:about=""><dc:format>image/svg+xml</dc:format><dc:type rdf:resource="http://purl.org/dc/dcmitype/StillImage" /><dc:title /></cc:Work></rdf:RDF></svg:metadata><sodipodi:namedview pagecolor="#ffffff" bordercolor="#666666" borderopacity="1" objecttolerance="10" gridtolerance="10" guidetolerance="10" inkscape:pageopacity="0" inkscape:pageshadow="2" inkscape:window-width="1920" inkscape:window-height="1009" id="namedview12" showgrid="false" inkscape:zoom="1.6978177" inkscape:cx="209.38644" inkscape:cy="135.46802" inkscape:window-x="0" inkscape:window-y="60" inkscape:window-maximized="1" inkscape:current-layer="svg10" showguides="true" inkscape:guide-bbox="true" inkscape:document-rotation="0" inkscape:pagecheckerboard="0"><sodipodi:guide position="0,1000" orientation="0,1" id="guide16" inkscape:label="" inkscape:locked="true" inkscape:color="rgb(0,0,255)" /><sodipodi:guide position="1763.3122,2036.1693" orientation="1000,0" id="guide18" /><sodipodi:guide position="0,200" orientation="0,1" id="guide20" inkscape:label="base" inkscape:locked="true" inkscape:color="rgb(0,0,255)" /><inkscape:grid type="xygrid" id="grid24" originx="-473.37552" originy="-489.69235" /><sodipodi:guide position="0,0" orientation="0,1" id="guide34" inkscape:label="bottom" inkscape:locked="true" inkscape:color="rgb(0,0,255)" /><sodipodi:guide position="225.05109,1693.3186" orientation="0,1" id="guide44" inkscape:label="" inkscape:locked="false" inkscape:color="rgb(0,0,255)" /><sodipodi:guide position="0,900" orientation="0,1" id="guide46" inkscape:label="" inkscape:locked="true" inkscape:color="rgb(0,0,255)" /><sodipodi:guide position="606.16676,560.13962" orientation="1,0" id="guide841" inkscape:label="width" />    </sodipodi:namedview>
 <svg:defs id="defs4"><inkscape:path-effect effect="fillet_chamfer" id="path-effect858" is_visible="true" lpeversion="1" satellites_param="F,0,0,1,0,0,0,1 @ F,0,0,1,0,0,0,1 @ F,0,0,1,0,0,0,1 @ F,0,0,1,0,24.176115,0,1 @ F,0,0,1,0,28.854274,0,1 @ F,0,0,1,0,0,0,1 | F,0,0,1,0,13.625407,0,1 @ F,0,0,1,0,12.519463,0,1 @ F,0,0,1,0,0,0,1 @ F,0,0,1,0,11.210265,0,1 @ F,0,0,1,0,8.3441042,0,1 @ F,0,0,1,0,0,0,1 @ F,0,0,1,0,0,0,1 @ F,0,0,1,0,13.205692,0,1 @ F,0,0,1,0,13.075907,0,1 @ F,0,0,1,0,0,0,1 @ F,0,0,1,0,0,0,1 @ F,0,0,1,0,0,0,1 @ F,0,0,1,0,0,0,1 @ F,0,0,1,0,0,0,1 @ F,0,0,1,0,0,0,1" unit="px" method="auto" mode="F" radius="0" chamfer_steps="1" flexible="false" use_knot_distance="true" apply_no_radius="true" apply_with_radius="true" only_selected="true" hide_knots="false" /><inkscape:path-effect effect="fillet_chamfer" id="path-effect856" is_visible="true" lpeversion="1" satellites_param="F,0,0,1,0,0,0,1 @ F,0,0,1,0,0,0,1 @ F,0,0,1,0,0,0,1 @ F,0,0,1,0,0,0,1 @ F,0,0,1,0,0,0,1 @ F,0,0,1,0,0,0,1 | F,0,0,1,0,0,0,1 @ F,0,0,1,0,0,0,1 @ F,0,0,1,0,0,0,1 @ F,0,0,1,0,0,0,1 @ F,0,0,1,0,0,0,1 @ F,0,0,1,0,0,0,1 @ F,0,0,1,0,0,0,1 @ F,0,0,1,0,0,0,1 @ F,0,0,1,0,0,0,1 @ F,0,0,1,0,0,0,1 @ F,0,0,1,0,0,0,1 @ F,0,0,1,0,0,0,1 @ F,0,0,1,0,0,0,1" unit="px" method="auto" mode="F" radius="0" chamfer_steps="1" flexible="false" use_knot_distance="true" apply_no_radius="true" apply_with_radius="true" only_selected="true" hide_knots="false" /><inkscape:path-effect effect="fillet_chamfer" id="path-effect866" is_visible="true" lpeversion="1" satellites_param="F,0,0,1,0,0,0,1 @ F,0,0,1,0,0,0,1 @ F,0,0,1,0,0,0,1 @ F,0,1,1,0,25.335742,0,1 @ F,0,1,1,0,25.335742,0,1 @ F,0,0,1,0,0,0,1 | F,0,1,1,0,25.335742,0,1 @ F,0,1,1,0,25.335742,0,1 @ F,0,0,1,0,0,0,1 @ F,0,1,1,0,25.335742,0,1 @ F,0,1,1,0,25.335742,0,1 @ F,0,0,1,0,0,0,1 @ F,0,1,1,0,25.335742,0,1 @ F,0,1,1,0,25.335742,0,1 @ F,0,0,1,0,0,0,1 @ F,0,0,1,0,0,0,1 @ F,0,0,1,0,0,0,1" unit="px" method="auto" mode="F" radius="0" chamfer_steps="1" flexible="false" use_knot_distance="true" apply_no_radius="true" apply_with_radius="true" only_selected="true" hide_knots="false" /><inkscape:path-effect effect="fillet_chamfer" id="path-effect852" is_visible="true" lpeversion="1" satellites_param="F,0,0,1,0,0,0,1 @ F,0,0,1,0,0,0,1 @ F,0,0,1,0,0,0,1 @ F,0,0,1,0,17.647011,0,1 @ F,0,0,1,0,18.798827,0,1 @ F,0,0,1,0,0,0,1 | F,0,0,1,0,12.489033,0,1 @ F,0,0,1,0,16.218975,0,1 @ F,0,0,1,0,0,0,1 @ F,0,0,1,0,15.16841,0,1 @ F,0,0,1,0,15.078812,0,1 @ F,0,0,1,0,0,0,1 @ F,0,0,1,0,24.036198,0,1 @ F,0,0,1,0,18.162269,0,1 @ F,0,0,1,0,0,0,1 @ F,0,0,1,0,0,0,1 @ F,0,0,1,0,0,0,1" unit="px" method="auto" mode="F" radius="0" chamfer_steps="1" flexible="false" use_knot_distance="true" apply_no_radius="true" apply_with_radius="true" only_selected="true" hide_knots="false" /><inkscape:path-effect effect="spiro" id="path-effect853" is_visible="true" lpeversion="1" /><inkscape:path-effect effect="spiro" id="path-effect928" is_visible="true" lpeversion="1" /><inkscape:path-effect effect="spiro" id="path-effect921" is_visible="true" lpeversion="1" /><inkscape:path-effect effect="spiro" id="path-effect917" is_visible="true" lpeversion="1" /><inkscape:path-effect effect="spiro" id="path-effect849" is_visible="true" lpeversion="1" /><inkscape:path-effect effect="spiro" id="path-effect851" is_visible="true" lpeversion="1" />
  <svg:style type="text/css" id="style2">
   
    .fil0 {fill:#EF7F1A;fill-rule:nonzero}
   
  </svg:style>
 <inkscape:path-effect effect="spiro" id="path-effect1214" is_visible="true" lpeversion="1" /><inkscape:path-effect effect="spiro" id="path-effect1195" is_visible="true" lpeversion="1" /><inkscape:path-effect effect="spiro" id="path-effect992" is_visible="true" lpeversion="1" /><inkscape:path-effect effect="spiro" id="path-effect1060" is_visible="true" lpeversion="1" /><inkscape:path-effect effect="spiro" id="path-effect1047" is_visible="true" lpeversion="1" /><inkscape:path-effect effect="spiro" id="path-effect1085" is_visible="true" lpeversion="1" /><inkscape:path-effect effect="spiro" id="path-effect1286" is_visible="true" lpeversion="1" /><inkscape:path-effect effect="spiro" id="path-effect1030" is_visible="true" lpeversion="1" /><inkscape:path-effect effect="fillet_chamfer" id="path-effect861" is_visible="true" lpeversion="1" satellites_param="F,0,0,1,0,0,0,1 @ F,0,0,1,0,0,0,1 @ F,0,0,1,0,0,0,1 @ F,0,0,1,0,0,0,1 @ F,0,0,1,0,0,0,1 @ F,0,0,1,0,0,0,1 @ F,0,0,1,0,0,0,1 @ F,0,0,1,0,0,0,1 @ F,0,0,1,0,0,0,1 @ F,0,0,1,0,0,0,1 @ F,0,0,1,0,18.745288,0,1 @ F,0,0,1,0,22.258793,0,1 @ F,0,0,1,0,0,0,1 @ F,0,0,1,0,0,0,1 @ F,0,0,1,0,0,0,1 @ F,0,0,1,0,0,0,1 @ F,0,0,1,0,0,0,1 @ F,0,0,1,0,0,0,1 @ F,0,0,1,0,0,0,1 @ F,0,0,1,0,0,0,1 @ F,0,0,1,0,0,0,1 @ F,0,0,1,0,0,0,1 @ F,0,0,1,0,44.937544,0,1 @ F,0,0,1,0,24.008986,0,1 @ F,0,0,1,0,0,0,1 @ F,0,0,1,0,20.706957,0,1 @ F,0,0,1,0,19.829215,0,1" unit="px" method="auto" mode="F" radius="0" chamfer_steps="1" flexible="false" use_knot_distance="true" apply_no_radius="true" apply_with_radius="true" only_selected="true" hide_knots="false" /></svg:defs>
 
<svg:g id="path851"><svg:path style="color:#000000;clip-rule:nonzero;fill:#1a5fb4;fill-rule:nonzero;stroke-linecap:round;stroke-linejoin:round;-inkscape-stroke:none;shape-rendering:auto" d="m 323.01953,-28.960937 c -2.36314,0.03733 -4.80114,0.255217 -7.30664,0.65625 L 208.20508,-11.095703 C 187.06102,-7.7113683 174.41538,4.527679 170.28516,25.501953 148.88035,134.2007 125.01641,242.41348 98.837891,350.0625 66.825746,349.71338 40.223988,374.16393 37.736328,406.0293 l -5.058594,64.77734 c -1.110777,14.22836 4.131046,30.52336 16.248047,40.57813 2.344547,1.94552 4.884447,3.50808 7.5,4.8789 C 32.863766,604.36423 7.7457848,692.04952 -19,779.23633 c -3.282421,10.70014 -2.120736,24.60334 5.613281,35.07812 C -5.652701,824.78924 7.3166521,830 18.519531,830 h 95.787109 c 23.70595,0 42.81527,-17.96489 44.46484,-41.49805 6.66941,-95.14687 19.40544,-189.86783 38.00391,-283.41992 32.35687,-1.69381 64.8454,-0.78408 97.00195,2.93555 34.17844,3.95351 68.00469,11.02314 100.96094,20.95703 18.73583,86.23404 32.90728,173.46176 42.28125,261.20703 C 439.48909,813.29802 457.92822,830 481.28125,830 h 113.78906 c 11.24309,0 24.80336,-5.25301 32.62305,-16.50391 7.81969,-11.25089 8.01648,-25.7689 4.11133,-36.30273 C 586.71395,655.56481 544.26735,532.95527 504.50391,409.48242 466.62258,291.8539 430.84748,172.24246 384.35156,55.40625 376.3854,35.388665 368.11806,15.491265 359.55273,-4.2773437 352.46026,-20.646638 339.56154,-29.222245 323.01953,-28.960937 Z m 4.67969,104.376953 c 0.29124,0.729438 0.61388,1.446014 0.9043,2.175781 37.36741,93.897853 68.11577,191.056323 99.18554,288.810543 -4.28855,-0.34869 -8.58169,-0.63454 -12.87109,-0.97265 -5.69384,-18.35817 -11.80635,-36.67648 -18.86328,-54.82422 -20.74128,-53.33865 -47.37666,-102.88041 -73.60742,-151.13672 -5.45076,-10.02766 -11.00773,-19.99712 -16.48243,-30.01172 7.00624,-18.1095 14.26463,-36.118154 21.73438,-54.041014 z m -109.9043,18.144531 c 7.45646,13.473703 14.82744,26.994413 22.24024,40.492183 -26.66541,71.47542 -49.87439,144.2348 -69.39258,217.98438 -3.48466,-0.11116 -6.97021,-0.18683 -10.45508,-0.29102 C 180.87966,266.02548 200.10127,179.95 217.79492,93.560547 Z m 60.69727,110.833983 c 22.9345,42.49576 44.80478,84.66169 61.64062,127.95703 3.63383,9.34483 7.01749,18.83146 10.27344,28.39258 -16.76646,-1.11319 -33.53414,-2.22031 -50.31055,-3.17187 -22.61737,-1.28287 -45.25266,-2.20642 -67.88476,-3.19532 13.69045,-50.51 29.12825,-100.53976 46.28125,-149.98242 z M 145.54297,411.35742 c 3.39654,0.0931 6.7931,0.18536 10.18945,0.28516 -2.96872,12.55132 -5.8776,25.11601 -8.63672,37.71484 -3.84209,0.48221 -7.69053,0.90945 -11.52343,1.46094 3.36049,-13.14404 6.68072,-26.29908 9.9707,-39.46094 z m 71.36523,2.36133 c 26.60399,1.09701 53.20524,2.24997 79.78907,3.75781 24.09773,1.36683 48.18352,2.94431 72.25976,4.64844 3.287,12.12731 6.46835,24.32786 9.52149,36.63086 0.32051,1.29154 0.60932,2.59075 0.92773,3.88281 -25.91871,-6.34579 -52.2155,-11.1571 -78.73438,-14.22461 -30.17872,-3.49085 -60.58053,-4.70001 -90.92382,-3.87304 1.99224,-8.76103 3.92104,-17.53689 6.01757,-26.27344 0.36482,-1.52023 0.77461,-3.02936 1.14258,-4.54883 z m -82.49804,98.01953 C 118.15202,597.0978 106.6823,683.35567 100.07031,770 H 46.455078 c 25.086926,-82.86908 48.832629,-166.14354 71.070312,-249.82227 0.51365,-1.93284 1.00545,-3.87144 1.51758,-5.80468 5.10681,-0.96334 10.23569,-1.80846 15.36719,-2.63477 z m 348.54101,23.98828 C 509.31748,614.19632 536.80432,692.28632 565.32227,770 H 495.08594 C 486.75577,695.89912 475.12541,622.17816 460.26562,549.10742 a 30.003,30.003 0 0 0 22.68555,-13.38086 z" id="path14933" /></svg:g>  </svg:svg>
